X:1
T:At the Foot of the Cross
T:Robert Harkness, 1922
T:At the Foot of the Cross
T:Public Domain
T:Public Domain
C:Robert Harkness, 1922
Z:Public Domain
%%score ( 1 2 ) ( 3 4 )
L:1/8
M:4/4
K:Eb
V:1 treble 
V:2 treble 
V:3 bass 
V:4 bass 
V:1
 [EG]2 [EG]2 [EG][EB][EA][EG] | [EF] [EF]2 [=EG] [FA]2 [F=A]2 | [FB]2 [Dc]2 [EB]2 [FA]2 | %3
w: 1.~I met Je- sus at the|foot of the cross When|I was bound by|
w: 2.~I found par- don at the|foot of the cross, For-|give- ness full and|
w: 3.~I met Je- sus when I|need- ed Him most, Des-|pair pos- sessed my|
 [EG]6 z2 | [EG]2 [EG]2 [EG][EB][EA][EG] | [EF] [EF]2 [=EG] [FA]2 [FA]2 | %6
w: sin;|Je- sus met me, cleansed my|heart of its dross, He|
w: free;|Now I love Him on- ly,|all else is loss, His|
w: soul;|I was un- der con- dem-|na- tion and lost, When|
 [E=A]2 [Fe]2 [Fd]2 [Fc]2 | (F4 E2 D2) ||"^Refrain" [EB]2 [EB]2 [EB][EG][B,F][B,E] | %9
w: gave sweet peace with-|in. * *||
w: grace a- vailed for|me. * *|met Je- sus at the foot|
w: Je- sus made me|whole. * *||
 [B,D] [B,D]2 [B,E] [DF]4 | [Dc]2 [Dc]2 [Dc][DA][DG][DF] | E E2 [DF] [EG]4 | %12
w: |||
w: of the cross, I|met Je- sus at the foot|of the cross; All|
w: |||
 [EG]>[EG] [DA][EB] [Ec][=Ec] [_Ec]2 | [DF]>[DF] [EG][DA] [EB][DB][EB][AB] | %14
w: ||
w: my sins were washed a- way; Sin’s|dark night turned in- to day When I|
w: ||
 [Ee]2 [Ec]2 [GB][EG]E[EF] | [EG] [DG]2 [B,F] [B,E]4 |] %16
w: ||
w: met Je- sus at the foot|of the cross. *|
w: ||
V:2
 x8 | x8 | x8 | x8 | x8 | x8 | x8 | B8 || x8 | x8 | x8 | x8 | x8 | x8 | x8 | x8 |] %16
w: ||||||||||||||||
w: |||||||I|||||||||
V:3
 [E,B,]2 [E,B,]2 [E,B,][E,D][E,C][E,B,] | [A,C] [A,C]2 [G,C] [F,C]2 [E,C]2 | %2
 [D,B,]2 [B,,A,]2 [C,G,]2 [D,B,]2 | [E,B,]6 z2 | [E,B,]2 [E,B,]2 [E,B,][E,D][E,C][E,B,] | %5
 [A,C] [A,C]2 [G,C] [F,C]2 [F,C]2 | [F,C]2 [F,=A,]2 [F,B,]2 [F,E]2 | (B,2 A,2 [G,B,]2 [F,A,]2) || %8
 [E,G,]2 [E,G,]2 [E,G,][E,B,][E,A,][E,G,] | [F,A,] [F,A,]2 [E,G,] [B,,B,]4 | %10
 [B,,A,]2 [B,,A,]2 [B,,A,][B,,F,][B,,B,][A,B,] | [G,B,] [G,B,]2 [F,B,] [E,B,]4 | %12
 [E,B,]>[E,B,] [F,B,][G,B,] A,[G,B,] [F,=A,]2 | %13
 [A,B,]>[A,B,] [G,B,][F,B,] [G,B,][F,A,][E,G,][F,D] | [G,B,]2 [A,C]2 [E,E][E,B,][E,G,][C,=A,] | %15
 [C,B,] [B,,B,]2 [B,,A,] [E,G,]4 |] %16
V:4
 x8 | x8 | x8 | x8 | x8 | x8 | x8 | D4 x4 || x8 | x8 | x8 | x8 | x4 =A, x3 | x8 | x8 | x8 |] %16

